packages/crs-framework/resources/svg/minus-circle.svg

<svg width="24" height="24" xmlns="http://www.w3.org/2000/svg"><path d="M12 2C6.48 2 2 6.48 2 12s4.48 10 10 10 10-4.48 10-10S17.52 2 12 2Zm4 11H8c-.55 0-1-.45-1-1s.45-1 1-1h8c.55 0 1 .45 1 1s-.45 1-1 1Z"/></svg>

<svg width="24" height="24" viewBox="0 0 24 24" fill="none" xmlns="http://www.w3.org/2000/svg">
<path d="M12 2C6.48 2 2 6.48 2 12C2 17.52 6.48 22 12 22C17.52 22 22 17.52 22 12C22 6.48 17.52 2 12 2ZM16 13H8C7.45 13 7 12.55 7 12C7 11.45 7.45 11 8 11H16C16.55 11 17 11.45 17 12C17 12.55 16.55 13 16 13Z" fill="#272C37"/>
</svg>
